dist/svgs/crypto-icons/icons/game.svg

<?xml version="1.0" encoding="UTF-8" standalone="yes"?>
<svg xmlns="http://www.w3.org/2000/svg" xmlns:xlink="http://www.w3.org/1999/xlink" width="512px" height="512px" viewBox="0 0 384 384" version="1.1">
  <g id="surface1">
    <path style=" stroke:none;fill-rule:nonzero;fill:rgb(0%,0%,0%);fill-opacity:1;" d="M 192.679688 1.179688 C 86.917969 1.179688 1.179688 86.917969 1.179688 192.679688 C 1.179688 298.445312 86.917969 384.179688 192.679688 384.179688 L 384.179688 384.179688 L 384.179688 192.679688 C 384.179688 86.917969 298.441406 1.179688 192.679688 1.179688 Z M 335.515625 335.414062 L 300.207031 335.414062 L 300.207031 284.597656 C 274.09375 315.109375 235.339844 334.507812 192.125 334.507812 C 113.671875 334.507812 49.847656 270.679688 49.847656 192.226562 C 49.847656 113.773438 113.671875 49.945312 192.125 49.945312 C 262.582031 49.945312 321.207031 101.433594 332.433594 168.753906 L 296.46875 168.753906 C 285.738281 121.027344 243.042969 85.253906 192.125 85.253906 C 133.140625 85.253906 85.15625 133.242188 85.15625 192.226562 C 85.15625 251.210938 133.140625 299.199219 192.125 299.199219 C 231.597656 299.199219 266.121094 277.6875 284.660156 245.789062 L 210.582031 245.789062 L 210.582031 210.480469 L 335.515625 210.480469 Z M 335.515625 335.414062 "/>
  </g>
</svg>

<svg xmlns="http://www.w3.org/2000/svg" viewBox="0 0 384 384"><path d="M192.68 1.18c-105.762 0-191.5 85.738-191.5 191.5 0 105.765 85.738 191.5 191.5 191.5h191.5v-191.5c0-105.762-85.739-191.5-191.5-191.5zm142.836 334.234h-35.309v-50.816c-26.113 30.511-64.867 49.91-108.082 49.91-78.453 0-142.277-63.828-142.277-142.281 0-78.454 63.824-142.282 142.277-142.282 70.457 0 129.082 51.489 140.309 118.809h-35.965c-10.73-47.727-53.426-83.5-104.344-83.5-58.984 0-106.969 47.988-106.969 106.973 0 58.984 47.985 106.972 106.969 106.972 39.473 0 73.996-21.512 92.535-53.41h-74.078V210.48h124.934zm0 0"/></svg>
